X:375
T:French Country Dances, No. 3 or Tranice Figure
C:Michael Kelly, c. 1804
L:1/8
M:6/8
R:Jig
S:Colin Hume's website,  colinhume.com  - chords can also be printed below the stave.
Q:3/8=104
Q:3/8=93
K:Am
%%center Play ABACC x 4 plus extra A
P:A
"-"a2a | [I: MIDI=gchord GHIghi] "Am"e2e c'2c' | "E7"b2b ^g2g | "Am"a2c' e'2e' | "E7"d'c'b "Am"a2a |\
"Am"e2e c'2c' | "E7"b2b ^g2g | "Am"a2a "E7"bd'^g | "Am"a3 ||
P:B
"-"gec | "C"c'e'd' c'ba | "G"ggg gab | "C"c'c'c' c'd'e' | "G"d'3 gec |\
"C"c'e'd' c'ba | "G"ggg gab | "C"c'c'c' "G"c'd'b | "C"c'3 ||
P:A
"-"a2a | "Am"e2e c'2c' | "E7"b2b ^g2g | "Am"a2c' e'2e' | "E7"d'c'b "Am"a2a |\
"Am"e2e c'2c' | "E7"b2b ^g2g | "Am"a2a "E7"bd'^g | "Am"a3 ||
P:C
|: e2e | "C"ceg "G"g^f=f | "G"d3 "C"ceg | "G"fdb "C"c'ge | "G"gfd "C"e2e |\
"C"ceg "G"g^f=f | "G"d3 "C"ceg | "G"ggg gBB | "C"c3 :|

